assets/Office worker/Default/Flat/office_worker_flat_default.svg

<svg width="32" height="32" viewBox="0 0 32 32" fill="none" xmlns="http://www.w3.org/2000/svg">
<path d="M15.9961 15.9961L11.9152 16.282C7.86076 17.9021 5 21.8639 5 26.5001V30.0001H27V26.5001C27 21.886 24.1514 17.9306 20.1188 16.2987L15.9961 15.9961Z" fill="#433B6B"/>
<path d="M18.71 16.1201H13.29L13.3 30H18.71V16.1201Z" fill="#D3D3D3"/>
<path d="M18.8744 15.8804L18.71 16.0402V29.9902L21.46 22.1302C21.58 21.7702 21.49 21.3802 21.22 21.1202L19.86 19.7902C19.69 19.6202 19.81 19.3402 20.05 19.3402H21.1C21.31 19.3402 21.45 19.1202 21.36 18.9302L20.13 16.3102C20.1287 16.3073 20.1274 16.3045 20.1261 16.3018C19.7203 16.1372 19.3025 15.9962 18.8744 15.8804Z" fill="#8D65C5"/>
<path d="M11.9127 16.2831C11.9118 16.2854 11.9109 16.2878 11.91 16.2901L10.64 18.9801C10.55 19.1701 10.7 19.3901 10.91 19.3901H11.96C12.2 19.3901 12.31 19.6801 12.15 19.8401L10.79 21.1701C10.53 21.4301 10.43 21.8201 10.56 22.1701L13.29 29.9901H13.3V16.0901L12.875 15.9495C12.5476 16.0462 12.2266 16.1577 11.9127 16.2831Z" fill="#8D65C5"/>
<path d="M15.9901 18.6799L14.3101 18.9999L15.2901 21.1099L13.9301 29.9999H18.0401L16.6901 21.1099L17.6601 18.9999L15.9901 18.6799Z" fill="#321B41"/>
<path d="M16 15.3101H13.29V20.0501C13.29 20.3601 13.65 20.5401 13.9 20.3401L16 18.6701L18.1 20.3401C18.35 20.5401 18.71 20.3601 18.71 20.0501V15.3101H16V15.3101Z" fill="#E6E6E6"/>
<path d="M16 18.5C14.8932 18.5 14 17.5359 14 16.3413V13.6587C14 12.4641 14.8932 11.5 16 11.5C17.1068 11.5 18 12.4641 18 13.6587V16.3413C18 17.5359 17.1068 18.5 16 18.5Z" fill="#FCB100"/>
<path d="M22.25 5.29C21.95 4.77 21.48 4.41 20.96 4.23C20.39 4.04 19.89 3.66 19.58 3.15C19.16 2.46 18.4 2 17.54 2C17.21 2 16.89 2.07 16.61 2.19C16.22 2.36 15.78 2.36 15.39 2.19C15.1 2.07 14.79 2 14.46 2C13.61 2 12.86 2.44 12.44 3.11C12.11 3.63 11.62 4.03 11.03 4.23C10.48 4.42 10 4.81 9.71004 5.36C9.28004 6.16 9.37004 7.12 9.86004 7.83C10.03 8.09 10.13 8.4 10.13 8.71V12.88C10.13 13.81 10.72 14.63 11.6 14.94L13.49 15.59V8.17C13.64 8.03 13.76 7.86 13.87 7.67C14.04 7.38 14.14 7.06 14.17 6.75C14.26 6.76 14.36 6.77 14.45 6.77C15.04 6.77 15.58 6.56 15.99 6.2C16.41 6.55 16.94 6.77 17.53 6.77C17.63 6.77 17.72 6.76 17.81 6.75C17.85 7.07 17.94 7.38 18.11 7.67C18.22 7.86 18.35 8.02 18.49 8.17V15.6L20.38 14.95C21.26 14.65 21.85 13.82 21.85 12.89V8.72C21.85 8.41 21.95 8.1 22.13 7.84C22.65 7.1 22.72 6.11 22.25 5.29Z" fill="#F1A11E"/>
<path d="M12.7701 10.5899C12.7701 11.5122 12.0224 12.2599 11.1001 12.2599C10.1777 12.2599 9.43005 11.5122 9.43005 10.5899C9.43005 9.66761 10.1777 8.91992 11.1001 8.91992C12.0224 8.91992 12.7701 9.66761 12.7701 10.5899Z" fill="#FDBB11"/>
<path d="M22.56 10.5899C22.56 11.5122 21.8123 12.2599 20.89 12.2599C19.9677 12.2599 19.22 11.5122 19.22 10.5899C19.22 9.66761 19.9677 8.91992 20.89 8.91992C21.8123 8.91992 22.56 9.66761 22.56 10.5899Z" fill="#FDBB11"/>
<path d="M10.75 8.18812C10.8253 6.41802 12.3341 5 14.1775 5H15.4852C15.7669 5 16.0084 5.16585 16.119 5.40976C16.5214 6.27805 17.4167 6.82439 18.3925 6.82439H19.8311C20.6359 6.86341 21.2697 7.51707 21.2495 8.30731L21.2375 8.80981L20.9276 13.6439C20.6559 15.5659 18.976 17 16.974 17H15.0627C13.0708 17 11.3808 15.5659 11.1192 13.6439L10.75 8.18812Z" fill="#FFC83D"/>
<path d="M12.18 10.28C12.33 9.65995 12.89 9.19995 13.56 9.19995C14.26 9.19995 14.83 9.68995 14.96 10.35C14.99 10.5 14.88 10.63 14.73 10.63H12.45C12.27 10.63 12.13 10.45 12.18 10.28Z" fill="white"/>
<path d="M19.83 10.28C19.68 9.65995 19.12 9.19995 18.45 9.19995C17.75 9.19995 17.18 9.68995 17.05 10.35C17.02 10.5 17.13 10.63 17.28 10.63H19.56C19.74 10.63 19.87 10.46 19.83 10.28Z" fill="white"/>
<path d="M12.86 10.39C12.86 9.88998 13.27 9.47998 13.77 9.47998C14.28 9.47998 14.69 9.88998 14.68 10.39C14.68 10.47 14.67 10.55 14.65 10.63H12.89C12.87 10.55 12.86 10.47 12.86 10.39Z" fill="#7D4533"/>
<path d="M19.15 10.39C19.15 9.88998 18.74 9.47998 18.24 9.47998C17.73 9.47998 17.33 9.88998 17.33 10.39C17.33 10.47 17.34 10.55 17.36 10.63H19.12C19.14 10.55 19.15 10.47 19.15 10.39Z" fill="#7D4533"/>
<path d="M13.77 9.87012C14.06 9.87012 14.29 10.1001 14.29 10.3901C14.29 10.4801 14.27 10.5601 14.23 10.6301H13.31C13.27 10.5601 13.25 10.4801 13.25 10.3901C13.25 10.1001 13.48 9.87012 13.77 9.87012Z" fill="black"/>
<path d="M18.24 9.87012C17.95 9.87012 17.72 10.1001 17.72 10.3901C17.72 10.4801 17.74 10.5601 17.78 10.6301H18.7C18.74 10.5601 18.76 10.4801 18.76 10.3901C18.76 10.1001 18.53 9.87012 18.24 9.87012Z" fill="black"/>
<path d="M13.62 10.0199C13.62 10.1082 13.5484 10.1799 13.46 10.1799C13.3717 10.1799 13.3 10.1082 13.3 10.0199C13.3 9.9315 13.3717 9.85986 13.46 9.85986C13.5484 9.85986 13.62 9.9315 13.62 10.0199Z" fill="white"/>
<path d="M18.12 10.0199C18.12 10.1082 18.0484 10.1799 17.96 10.1799C17.8717 10.1799 17.8 10.1082 17.8 10.0199C17.8 9.9315 17.8717 9.85986 17.96 9.85986C18.0484 9.85986 18.12 9.9315 18.12 10.0199Z" fill="white"/>
<path d="M15.6541 10.2897L15.1583 12.0282C15.0554 12.384 15.2986 12.75 15.6447 12.75H16.3743C16.7204 12.75 16.9636 12.384 16.8607 12.0282L16.365 10.2897C16.2621 9.90342 15.7663 9.90342 15.6541 10.2897Z" fill="#ED9200"/>
<path d="M16.0005 13.7057C15.45 13.7057 14.9301 13.5669 14.4918 13.3212C14.3389 13.2358 14.186 13.4174 14.2777 13.5669C14.6447 14.1542 15.2767 14.5493 16.0005 14.5493C16.7243 14.5493 17.3563 14.1542 17.7233 13.5669C17.8151 13.4174 17.652 13.2465 17.5093 13.3212C17.0607 13.5669 16.551 13.7057 16.0005 13.7057Z" fill="#990839"/>
<path d="M12.3451 8.42675C12.3916 8.45985 12.4473 8.4776 12.5044 8.47752C12.5662 8.47719 12.6261 8.45605 12.6744 8.41752C13.1162 8.1244 13.6481 7.99852 14.1744 8.06252C14.21 8.0671 14.2461 8.06448 14.2806 8.0548C14.3151 8.04513 14.3473 8.0286 14.3753 8.0062C14.4033 7.9838 14.4265 7.956 14.4436 7.92444C14.4606 7.89288 14.4711 7.85822 14.4744 7.82252C14.4817 7.75118 14.4608 7.67981 14.4161 7.62372C14.3715 7.56763 14.3066 7.5313 14.2354 7.52252C13.5663 7.43577 12.8888 7.60156 12.3354 7.98752C12.2904 8.02264 12.2575 8.07095 12.2413 8.1257C12.225 8.18044 12.2263 8.23888 12.245 8.29286C12.2636 8.34683 12.2986 8.39364 12.3451 8.42675Z" fill="#D37034"/>
<path d="M19.3464 8.42152C19.3941 8.45778 19.4524 8.47745 19.5124 8.47752C19.5695 8.47795 19.6264 8.46044 19.673 8.42746C19.7197 8.39449 19.7548 8.3477 19.7735 8.2937C19.7921 8.2397 19.7934 8.1812 19.7771 8.12645C19.7607 8.0717 19.7276 8.02346 19.6824 7.98852C19.1283 7.60389 18.4515 7.4379 17.7824 7.52252C17.7119 7.53297 17.6483 7.57045 17.605 7.62703C17.5617 7.6836 17.5421 7.75482 17.5505 7.82557C17.5588 7.89632 17.5943 7.96105 17.6496 8.00603C17.7048 8.05101 17.7754 8.07271 17.8464 8.06652C18.3728 8.00144 18.905 8.12741 19.3464 8.42152Z" fill="#D37034"/>
</svg>

<svg xmlns="http://www.w3.org/2000/svg" width="32" height="32" fill="none"><path fill="#433B6B" d="m15.996 15.996-4.08.286A10.997 10.997 0 0 0 5 26.5V30h22v-3.5c0-4.614-2.849-8.57-6.881-10.201l-4.123-.303Z"/><path fill="#D3D3D3" d="M18.71 16.12h-5.42L13.3 30h5.41V16.12Z"/><path fill="#8D65C5" d="m18.874 15.88-.164.16v13.95l2.75-7.86c.12-.36.03-.75-.24-1.01l-1.36-1.33a.262.262 0 0 1 .19-.45h1.05c.21 0 .35-.22.26-.41l-1.23-2.62a.34.34 0 0 0-.004-.008 10.906 10.906 0 0 0-1.252-.422ZM11.913 16.283l-.003.007-1.27 2.69c-.09.19.06.41.27.41h1.05c.24 0 .35.29.19.45l-1.36 1.33c-.26.26-.36.65-.23 1l2.73 7.82h.01v-13.9l-.425-.14a10.97 10.97 0 0 0-.962.333Z"/><path fill="#321B41" d="m15.99 18.68-1.68.32.98 2.11L13.93 30h4.11l-1.35-8.89.97-2.11-1.67-.32Z"/><path fill="#E6E6E6" d="M16 15.31h-2.71v4.74c0 .31.36.49.61.29l2.1-1.67 2.1 1.67c.25.2.61.02.61-.29v-4.74H16Z"/><path fill="#FCB100" d="M16 18.5c-1.107 0-2-.964-2-2.159V13.66c0-1.195.893-2.159 2-2.159s2 .964 2 2.159v2.682c0 1.195-.893 2.159-2 2.159Z"/><path fill="#F1A11E" d="M22.25 5.29c-.3-.52-.77-.88-1.29-1.06a2.56 2.56 0 0 1-1.38-1.08 2.377 2.377 0 0 0-2.97-.96c-.39.17-.83.17-1.22 0-.29-.12-.6-.19-.93-.19-.85 0-1.6.44-2.02 1.11-.33.52-.82.92-1.41 1.12-.55.19-1.03.58-1.32 1.13-.43.8-.34 1.76.15 2.47.17.26.27.57.27.88v4.17c0 .93.59 1.75 1.47 2.06l1.89.65V8.17c.15-.14.27-.31.38-.5.17-.29.27-.61.3-.92a2.32 2.32 0 0 0 1.82-.55c.42.35.95.57 1.54.57.1 0 .19-.01.28-.02a2.373 2.373 0 0 0 .68 1.42v7.43l1.89-.65c.88-.3 1.47-1.13 1.47-2.06V8.72c0-.31.1-.62.28-.88.52-.74.59-1.73.12-2.55Z"/><path fill="#FDBB11" d="M12.77 10.59a1.67 1.67 0 1 1-3.34 0 1.67 1.67 0 0 1 3.34 0ZM22.56 10.59a1.67 1.67 0 1 1-3.34 0 1.67 1.67 0 0 1 3.34 0Z"/><path fill="#FFC83D" d="M10.75 8.188C10.825 6.418 12.334 5 14.178 5h1.307c.282 0 .523.166.634.41.402.868 1.298 1.414 2.273 1.414h1.44c.804.04 1.438.693 1.418 1.483l-.012.503-.31 4.834C20.656 15.566 18.976 17 16.974 17h-1.911c-1.992 0-3.682-1.434-3.944-3.356l-.369-5.456Z"/><path fill="#fff" d="M12.18 10.28c.15-.62.71-1.08 1.38-1.08.7 0 1.27.49 1.4 1.15a.23.23 0 0 1-.23.28h-2.28c-.18 0-.32-.18-.27-.35ZM19.83 10.28c-.15-.62-.71-1.08-1.38-1.08-.7 0-1.27.49-1.4 1.15-.03.15.08.28.23.28h2.28c.18 0 .31-.17.27-.35Z"/><path fill="#7D4533" d="M12.86 10.39c0-.5.41-.91.91-.91a.9.9 0 0 1 .91.91c0 .08-.01.16-.03.24h-1.76a.986.986 0 0 1-.03-.24ZM19.15 10.39c0-.5-.41-.91-.91-.91-.51 0-.91.41-.91.91 0 .08.01.16.03.24h1.76c.02-.08.03-.16.03-.24Z"/><path fill="#000" d="M13.77 9.87a.516.516 0 0 1 .46.76h-.92a.516.516 0 0 1 .46-.76ZM18.24 9.87a.516.516 0 0 0-.46.76h.92a.516.516 0 0 0-.46-.76Z"/><path fill="#fff" d="M13.62 10.02a.16.16 0 1 1-.32 0 .16.16 0 0 1 .32 0ZM18.12 10.02a.16.16 0 1 1-.32 0 .16.16 0 0 1 .32 0Z"/><path fill="#ED9200" d="m15.654 10.29-.496 1.738c-.103.356.14.722.487.722h.73c.345 0 .589-.366.486-.722l-.496-1.738c-.103-.387-.599-.387-.71 0Z"/><path fill="#990839" d="M16 13.706c-.55 0-1.07-.14-1.508-.385-.153-.085-.306.096-.214.246.367.587.999.982 1.722.982.724 0 1.356-.395 1.723-.982.092-.15-.071-.32-.214-.246a3.118 3.118 0 0 1-1.509.385Z"/><path fill="#D37034" d="M12.345 8.427a.274.274 0 0 0 .33-.01 2.227 2.227 0 0 1 1.5-.354.267.267 0 0 0 .3-.24.274.274 0 0 0-.24-.3 2.712 2.712 0 0 0-1.9.465.274.274 0 0 0 .01.439ZM19.346 8.422a.275.275 0 0 0 .327.005.273.273 0 0 0 .01-.438 2.731 2.731 0 0 0-1.9-.466.274.274 0 0 0 .063.544 2.215 2.215 0 0 1 1.5.355Z"/></svg>
